X: 1724
T: Aoife Kelly's Wedding
R: jig
M: 6/8
K: Gmajor
|:DGB ABc|ded cAc|dGB A2c|dAd GBG|
DGB ABc|ded cAd|gfe ded|cAF G3:|
|:gbg~f3|cde ~d3|gag fed|ABc d3|
gbg~f3|cde ded|GAB cAd|BcA G3:|

